X:128
T:Micho Russell's
R:reel
D:Arty McGlynn & Nollaig Casey: Lead the Knave
Z:id:hn-reel-128
M:C|
K:Dmix
d2cA GEEG|(3ABA GE (3ABA D2|d2cA GEEG|(3ABA GE D4:|
|:c3d egge|eaae egge|1 c3d egge|abge d2ed:|2 f2ed cAGB|Addc defe||

